symbols/web/event_note/materialsymbolssharp/event_note_grad200fill1_20px.svg

<svg xmlns="http://www.w3.org/2000/svg" height="20" width="20"><path d="M5.5 11.958V9.667h9v2.291Zm0 3.334V13H12v2.292Zm-3.667 3.666V2.708h2.292V1.042h2.292v1.666h7.166V1.042h2.292v1.666h2.292v16.25Zm2.292-2.291h11.75V7.958H4.125Z"/></svg>

<svg xmlns="http://www.w3.org/2000/svg" height="20" width="20"><path d="M5.5 11.958V9.667H14.5V11.958ZM5.5 15.292V13H12V15.292ZM1.833 18.958V2.708H4.125V1.042H6.417V2.708H13.583V1.042H15.875V2.708H18.167V18.958ZM4.125 16.667H15.875V7.958H4.125Z"/></svg>
